imgs/icon-impact.svg

<svg width="40" height="40" viewBox="0 0 40 40" fill="none" xmlns="http://www.w3.org/2000/svg">
<path d="M12.5001 15.1333V17.6333" stroke="#F67ACB" stroke-width="2.5" stroke-linecap="round" stroke-linejoin="round"/>
<path d="M27.5001 15.1333V17.6333" stroke="#F67ACB" stroke-width="2.5" stroke-linecap="round" stroke-linejoin="round"/>
<path d="M18.3333 22.6617H19.1666C20.0866 22.6617 20.8333 21.915 20.8333 20.995V15.1617" stroke="#F67ACB" stroke-width="2.5" stroke-linecap="round" stroke-linejoin="round"/>
<path d="M25.4034 26.9283C22.4201 29.9117 17.5817 29.9117 14.5984 26.9283" stroke="#F67ACB" stroke-width="2.5" stroke-linecap="round" stroke-linejoin="round"/>
<path d="M12.6467 5H8.33333C6.49167 5 5 6.49167 5 8.33333V12.6467" stroke="#F67ACB" stroke-width="2.5" stroke-linecap="round" stroke-linejoin="round"/>
<path d="M27.3533 35H31.6666C33.5083 35 34.9999 33.5083 34.9999 31.6667V27.3533" stroke="#F67ACB" stroke-width="2.5" stroke-linecap="round" stroke-linejoin="round"/>
<path d="M5 27.3533V31.6667C5 33.5083 6.49167 35 8.33333 35H12.6467" stroke="#F67ACB" stroke-width="2.5" stroke-linecap="round" stroke-linejoin="round"/>
<path d="M34.9999 12.6467V8.33333C34.9999 6.49167 33.5083 5 31.6666 5H27.3533" stroke="#F67ACB" stroke-width="2.5" stroke-linecap="round" stroke-linejoin="round"/>
</svg>

<svg xmlns="http://www.w3.org/2000/svg" width="40" height="40" fill="none"><path stroke="#F67ACB" stroke-linecap="round" stroke-linejoin="round" stroke-width="2.5" d="M12.5 15.133v2.5M27.5 15.133v2.5M18.333 22.662h.834c.92 0 1.666-.747 1.666-1.667v-5.833M25.403 26.928a7.64 7.64 0 0 1-10.805 0M12.647 5H8.333A3.33 3.33 0 0 0 5 8.333v4.314M27.353 35h4.314A3.33 3.33 0 0 0 35 31.667v-4.314M5 27.353v4.314A3.33 3.33 0 0 0 8.333 35h4.314M35 12.647V8.333A3.33 3.33 0 0 0 31.667 5h-4.314"/></svg>
